src/icons/aws-iam.svg

<?xml version="1.0" encoding="UTF-8"?>
<svg xmlns="http://www.w3.org/2000/svg" xmlns:xlink="http://www.w3.org/1999/xlink" width="24" height="32" viewBox="0 0 24 32" version="1.1">
<g id="surface1">
<path style=" stroke:none;fill-rule:evenodd;fill:rgb(23.529412%,28.627452%,16.078432%);fill-opacity:1;" d="M 4.191406 11.1875 L 1.394531 9.398438 L 0 11.269531 L 2.140625 11.445312 Z M 1.871094 13.507812 L 12 13.957031 L 22.128906 13.507812 L 12 9.601562 Z M 18.847656 11.1875 L 21.3125 11.492188 L 24 11.269531 L 21.597656 7.742188 Z M 18.847656 11.1875 "/>
<path style=" stroke:none;fill-rule:evenodd;fill:rgb(71.764708%,79.215688%,61.56863%);fill-opacity:1;" d="M 8.679688 23.957031 L 14.46875 23.011719 L 20.0625 23.921875 L 14.269531 27.757812 Z M 8.679688 23.957031 "/>
<path style=" stroke:none;fill-rule:evenodd;fill:rgb(45.882353%,61.176473%,24.313726%);fill-opacity:1;" d="M 9.320312 10.832031 L 6.308594 10.46875 L 3.203125 7.777344 L 6.308594 3.429688 L 9.320312 4.082031 Z M 9.320312 10.832031 "/>
<path style=" stroke:none;fill-rule:evenodd;fill:rgb(29.411766%,38.039216%,17.254902%);fill-opacity:1;" d="M 1.871094 6.019531 L 1.871094 3.527344 L 12 0 L 14.679688 3.945312 L 9.320312 5.441406 L 6.308594 4.785156 L 6.308594 10.390625 L 12 9.601562 L 15.03125 18.886719 L 12 32 L 8.964844 30.941406 L 8.964844 27.953125 L 6.308594 27.214844 L 6.308594 13.195312 L 1.871094 13.507812 L 1.871094 11.011719 L 0 11.269531 L 0 6.542969 Z M 1.871094 6.019531 "/>
<path style=" stroke:none;fill-rule:evenodd;fill:rgb(45.882353%,61.176473%,24.313726%);fill-opacity:1;" d="M 17.242188 1.828125 L 19.378906 2.566406 L 22.128906 3.527344 L 22.128906 6.019531 L 24 6.542969 L 24 11.269531 L 22.128906 11.011719 L 22.128906 13.507812 L 19.742188 13.339844 L 17.691406 13.195312 L 17.691406 16 L 22.128906 16 L 22.128906 18.5625 L 20.066406 18.691406 L 20.066406 21.28125 L 15.03125 21.980469 L 15.03125 24.96875 L 20.054688 23.925781 L 20.066406 26.5625 L 15.03125 27.953125 L 15.03125 30.941406 L 12 32 L 12 9.601562 L 14.679688 9.972656 L 14.679688 5.441406 L 12 4.785156 L 12 0 Z M 17.242188 1.828125 "/>
<path style=" stroke:none;fill-rule:evenodd;fill:rgb(23.529412%,28.627452%,16.078432%);fill-opacity:1;" d="M 15.03125 4.042969 L 12 3.199219 L 6.308594 4.785156 L 9.320312 5.441406 Z M 15.03125 4.042969 "/>
<path style=" stroke:none;fill-rule:evenodd;fill:rgb(29.411766%,38.039216%,17.254902%);fill-opacity:1;" d="M 14.679688 4.785156 L 17.691406 4.785156 L 17.691406 10.390625 L 14.679688 9.972656 Z M 14.679688 4.785156 "/>
<path style=" stroke:none;fill-rule:evenodd;fill:rgb(23.529412%,28.627452%,16.078432%);fill-opacity:1;" d="M 6.308594 4.785156 L 12 3.199219 L 13.199219 3.535156 L 15.03125 4.042969 L 17.691406 4.785156 L 14.679688 5.441406 L 12 4.785156 L 9.320312 5.441406 Z M 6.308594 4.785156 "/>
</g>
</svg>

<svg role="img" viewBox="0 0 24 32" xmlns="http://www.w3.org/2000/svg"><path d="m4.191 11.188-2.796-1.79L0 11.27l2.14.175Zm-2.32 2.32L12 13.957l10.129-.45L12 9.603Zm16.977-2.32 2.465.304L24 11.27l-2.402-3.528Zm0 0" style="stroke:none;fill-rule:evenodd;fill:rgb(23.529412%,28.627452%,16.078432%);fill-opacity:1"/><path d="m8.68 23.957 5.789-.945 5.594.91-5.793 3.836Zm0 0" style="stroke:none;fill-rule:evenodd;fill:rgb(71.764708%,79.215688%,61.56863%);fill-opacity:1"/><path d="m9.32 10.832-3.011-.363-3.106-2.692L6.31 3.43l3.011.652Zm0 0" style="stroke:none;fill-rule:evenodd;fill:rgb(45.882353%,61.176473%,24.313726%);fill-opacity:1"/><path d="M1.871 6.02V3.527L12 0l2.68 3.945-5.36 1.496-3.011-.656v5.606L12 9.6l3.031 9.286L12 32l-3.035-1.059v-2.988l-2.656-.738v-14.02l-4.438.313v-2.496L0 11.27V6.543Zm0 0" style="stroke:none;fill-rule:evenodd;fill:rgb(29.411766%,38.039216%,17.254902%);fill-opacity:1"/><path d="m17.242 1.828 2.137.738 2.75.961V6.02L24 6.543v4.727l-1.871-.258v2.496l-2.387-.168-2.05-.145V16h4.437v2.563l-2.063.128v2.59l-5.035.7v2.988l5.024-1.043.011 2.637-5.035 1.39v2.988L12 32V9.602l2.68.37v-4.53L12 4.784V0Zm0 0" style="stroke:none;fill-rule:evenodd;fill:rgb(45.882353%,61.176473%,24.313726%);fill-opacity:1"/><path d="M15.031 4.043 12 3.199 6.309 4.785l3.011.656Zm0 0" style="stroke:none;fill-rule:evenodd;fill:rgb(23.529412%,28.627452%,16.078432%);fill-opacity:1"/><path d="M14.68 4.785h3.011v5.606l-3.011-.418Zm0 0" style="stroke:none;fill-rule:evenodd;fill:rgb(29.411766%,38.039216%,17.254902%);fill-opacity:1"/><path d="M6.309 4.785 12 3.2l1.2.336 1.831.508 2.66.742-3.011.656L12 4.785l-2.68.656Zm0 0" style="stroke:none;fill-rule:evenodd;fill:rgb(23.529412%,28.627452%,16.078432%);fill-opacity:1"/></svg>
